X:1
T:Title
%%score ( 1 2 ) ( 3 4 )
L:1/8
Q:1/4=130
M:3/4
K:Bb
V:1 treble nm="Grand Piano, Staff 1"
V:2 treble 
V:3 bass nm="Choir Pad, Raphael (Oratory), CM"
V:4 bass 
V:1
 F2 [Fd]4 | [Fd]2 [Ee]4 | [EA]2 [Ec]4 | [DB]2 B2 A2 | [EG]2 [DF]2 [_D=E]2 | [DF]2 [EG]4 | %6
w: By~From~�Oratory~Hymns� *||||||
 [EF]2 [DF]4- | [DF]2 D4 | F2 [Fd]4 | [Fd]2 [Ee]4 | [EA]2 [Ec]4 | [DB]2 B2 A2 | [EG]2 F2 B2 | %13
w: |||||||
 [Fd]2 [Ed]4 | [Ec]2 [DB]4- | [DB]4 z2 |] %16
w: |||
V:2
 x6 | x6 | x6 | z2 E4 | x6 | x6 | x6 | x6 | x6 | x6 | x6 | z2 E4 | z2 D4 | x6 | x6 | x6 |] %16
V:3
 F,2 [B,,B,]4 | [B,,B,]2 [F,A,]4 | [F,A,]2 [B,,B,]4 | z2 G,2 z2 | [E,B,]2 [F,B,]4 | %5
 [F,B,]2 [F,A,]4 | [F,A,]2 [B,,B,]4- | [B,,B,]6 | F,2 [B,,B,]4 | [B,,B,]2 [F,A,]4 | %10
 [F,A,]2 [^F,A,]4 | z2 G,2 z2 | [E,B,]2 [F,B,]4 | [F,B,]2 [F,A,]4 | [F,A,]2 [B,,B,]4- | %15
 [B,,B,]4 z2 |] %16
V:4
 x6 | x6 | x6 | [B,,B,]2 E,2- [E,A,]2 | x6 | x6 | x6 | x6 | x6 | x6 | x6 | G,2 E,2- [E,A,]2 | x6 | %13
 x6 | x6 | x6 |] %16

